icons/calendar-filled.svg

<svg xmlns="http://www.w3.org/2000/svg" width="24" height="24" viewBox="0 0 24 24">
    <path fill="#3A3A47" fill-rule="evenodd" d="M20 10v10c0 1.273-.607 1.938-1.822 1.996L18 22H6c-1.273 0-1.938-.607-1.996-1.822L4 20V10h16zm-10 7h-.998c-.667-.001-1.001.332-1.002 1 0 .668.333 1.001 1 1h1c.667 0 1-.333 1-1s-.333-1-1-1zm5 0h-.998c-.667-.001-1.001.332-1.002 1 0 .668.333 1.001 1 1h1c.667 0 1-.333 1-1s-.333-1-1-1zm-5-4h-.998c-.667-.001-1.001.332-1.002 1 0 .668.333 1.001 1 1h1c.667 0 1-.333 1-1s-.333-1-1-1zm5 0h-.998c-.667-.001-1.001.332-1.002 1 0 .668.333 1.001 1 1h1c.667 0 1-.333 1-1s-.333-1-1-1zm1-11c.619 0 .95.27.995.812l.005.13V4h1c1.273 0 1.938.607 1.996 1.822L20 6v2H4V6.004c0-1.275.607-1.942 1.822-2L6 4h1V3c-.002-.667.33-1 1-1 .621 0 .954.287.998.862L9.004 3v1H15V2.941c0-.627.333-.941 1-.941z"/>
</svg>

<svg width="24" height="24" viewBox="0 0 24 24" fill="none" xmlns="http://www.w3.org/2000/svg">
<path d="M6 4H7V3C6.998 2.333 7.33 2 8 2C8.67 2 9.004 2.333 9.004 3V4H15V2.941C15 2.314 15.333 2 16 2C16.667 2 17 2.314 17 2.941V4H18C19.333 4 20 4.667 20 6V20C20 21.333 19.333 22 18 22H6C4.667 22 4 21.333 4 20V6.004C4 4.668 4.667 4 6 4ZM4 8V10H20V8H4ZM9 15H10C10.667 15 11 14.667 11 14C11 13.333 10.667 13 10 13H9.002C8.335 12.999 8.001 13.332 8 14C8 14.668 8.333 15.001 9 15ZM14 15H15C15.667 15 16 14.667 16 14C16 13.333 15.667 13 15 13H14.002C13.335 12.999 13.001 13.332 13 14C13 14.668 13.333 15.001 14 15ZM9 19H10C10.667 19 11 18.667 11 18C11 17.333 10.667 17 10 17H9.002C8.335 16.999 8.001 17.332 8 18C8 18.668 8.333 19.001 9 19ZM14 19H15C15.667 19 16 18.667 16 18C16 17.333 15.667 17 15 17H14.002C13.335 16.999 13.001 17.332 13 18C13 18.668 13.333 19.001 14 19Z" fill="#3A3A47"/>
</svg>
